!!!OTL: DURCH DREIMAL DREI IHR BRUEDER
!!!ARE: Europa, Mitteleuropa, Deutschland
!!!SCT: F0788
!!!YEM: Copyright 1995, estate of Helmut Schaffrath.
**kern
*ICvox
*Ivox
*M4/4
*k[f#c#]
*D:
{4dd
=1
4ff#
4dd
4ff#
4dd
=2
4.ee
8ff#
4ee}
{4ee
=3
4gg
4ee
4gg
4ee
=4
2ff#
4r}
{4ff#
=5
4gg
4ff#
4gg
4ee
=6
4ff#
8aa}
{8gg
4ff#
4ee
=7
2dd
2cc#
=8
2.dd}
{4a
=9
4.dd
8ee
4dd
4cc#
=10
2b
4b}
{4b
=11
4.gg
8ff#
4ee
4dd
=12
2cc#
4r}
{4ee
=13
4dd
4cc#
4b
4a
=14
4g#
4e
4a}
{4b
=15
4cc#
4cc#
4b
4b
=16
2a
4r}
{4a
=17
4.dd
8ee
4dd
4cc#
=18
2.b}
{4a
=19
4g
4f#
4e
4d
=20
2e
4r}
{4d
=21
4f#
4d
4f#
4d
=22
4.e
8f#
4e}
{4e
=23
4g
4e
4g
4e
=24
2f#
4r}
{4a
=25
4b
4a
4b
4cc#
=26
4dd
8cc#}
{8b
4a
4g
=27
2f#
2e
=28
2d
4r}
==
!!!AGN: Staende -, Maurer - Lied
!!!ONB: ESAC (Essen Associative Code) Database: FINK
!!!AMT: simple quadruple
!!!AIN: vox
!!!EED: Helmut Schaffrath
!!!EEV: 1.0
*-
